X: 1
T: Tansys Golowan
R: march
L: 1/8
K:Gmaj
M: 5/4
|:DGA|B2BGAGE2ED|E3G2BA3c|B2BAGB AGED|E3AGFG:|
|:ddB|G3BAGA3c|B2BAGB ADGA|B3GABc3c|B3AGFG:|
